X: 11970
T: End Of Winter, The
R: jig
M: 6/8
K: Dmajor
ABA ABc|dAG FED|~E3 FDA,|G,A,G, DG,C|~B,3 DCB,|
A,DC D2E|1 ~F3 AGF|~E3 EFG:|2 ~F3 GEC|DED DCD||
|:~E3 ECA,|G2F ECA,|DEF AFA|dcd Ade|
fdd add|B/c/dB AGF|EFG BGE|1 EDC DCD:|2 EDC D2B||

